Sources/FrostedUI/Resources/Icons.xcassets/listCheck12.imageset/list-check-12.svg

<svg width="12" height="12" viewBox="0 0 12 12" fill="none" xmlns="http://www.w3.org/2000/svg" data-fui-icon="true">
  <path
    d="M9.125 1.125C10.0915 1.125 10.875 1.90851 10.875 2.875V9.125C10.875 10.0915 10.0915 10.875 9.125 10.875H2.875C1.90851 10.875 1.125 10.0915 1.125 9.125V2.875C1.125 1.9085 1.9085 1.125 2.875 1.125H9.125ZM2.875 2.625C2.73693 2.625 2.625 2.73693 2.625 2.875V9.125C2.625 9.26308 2.73692 9.375 2.875 9.375H9.125C9.26309 9.375 9.375 9.26309 9.375 9.125V2.875C9.375 2.73692 9.26308 2.625 9.125 2.625H2.875ZM4.66992 6.42676C4.9184 6.09547 5.38837 6.02803 5.71973 6.27637C6.0511 6.5249 6.11865 6.99578 5.87012 7.32715L4.93359 8.57422C4.69476 8.89263 4.24915 8.96884 3.91797 8.74805L3.35547 8.37305C3.01098 8.14324 2.91774 7.67759 3.14746 7.33301C3.3709 6.99819 3.81697 6.90153 4.1582 7.10742L4.66992 6.42676ZM8.125 6.75C8.53921 6.75 8.875 7.08579 8.875 7.5C8.875 7.91421 8.53921 8.25 8.125 8.25H6.875C6.46079 8.25 6.125 7.91421 6.125 7.5C6.125 7.08579 6.46079 6.75 6.875 6.75H8.125ZM4.66992 3.42578C4.9185 3.09465 5.38845 3.02791 5.71973 3.27637C6.05099 3.52488 6.11852 3.99483 5.87012 4.32617L4.93359 5.57422C4.69471 5.89231 4.24902 5.96871 3.91797 5.74805L3.35547 5.37305C3.01087 5.1433 2.91779 4.67763 3.14746 4.33301C3.37089 3.99788 3.81684 3.90127 4.1582 4.10742L4.66992 3.42578ZM8.1543 3.75C8.56837 3.75016 8.9043 4.08589 8.9043 4.5C8.9043 4.91411 8.56837 5.24984 8.1543 5.25H6.9043C6.49008 5.25 6.1543 4.91421 6.1543 4.5C6.1543 4.08579 6.49008 3.75 6.9043 3.75H8.1543Z"
    fill="currentColor"
  />
</svg>

<svg xmlns="http://www.w3.org/2000/svg" width="12" height="12" fill="none" data-fui-icon="true" viewBox="0 0 12 12"><path fill="currentColor" d="M9.125 1.125c.966 0 1.75.784 1.75 1.75v6.25a1.75 1.75 0 0 1-1.75 1.75h-6.25a1.75 1.75 0 0 1-1.75-1.75v-6.25c0-.966.784-1.75 1.75-1.75zm-6.25 1.5a.25.25 0 0 0-.25.25v6.25c0 .138.112.25.25.25h6.25a.25.25 0 0 0 .25-.25v-6.25a.25.25 0 0 0-.25-.25zM4.67 6.427a.75.75 0 1 1 1.2.9l-.936 1.247a.75.75 0 0 1-1.016.174l-.563-.375a.75.75 0 0 1 .803-1.266zm3.455.323a.75.75 0 0 1 0 1.5h-1.25a.75.75 0 0 1 0-1.5zM4.67 3.426a.75.75 0 0 1 1.2.9l-.936 1.248a.75.75 0 0 1-1.016.174l-.563-.375a.75.75 0 0 1 .803-1.266zm3.484.324a.75.75 0 0 1 0 1.5h-1.25a.75.75 0 1 1 0-1.5z"/></svg>
